X: 2
T: Finnish_Polska_efter_Antti_J\"arvel\"a
C: trad. Finland
S: Bruce Sagan's "scanfolk" session archive 2021-1-16
F: https://app.box.com/s/u6iiren0igvsukrhdducy7orq72jayq8/file/764902965064
R: polska
Z: 2021 John Chambers <jc:trillian.mit.edu>
M: 3/4
L: 1/16
K: Ddor
N: The source has K:Dm, but all the B notes are raised to B natural.
% - - - - - - - - - -
V: 1 staves=2
"^A"|:::\
A2f2 {g}fed^c defg | (g2a2) a2A2 ((3ABA[G2G,2]) |\
([GG,]F)GB ((3BcBA2) A3F | (FED)^C ((3EFED2) D4 :::|
"^B"|:::\
(DEF)G AGA(c Bd)BG | AGA(c Bd)BG [1,3 BcA(F :|[2,4 A2A2 ||\
A(d^cd) AGFE D2(3(gag) | [^fA][gA]ed ([^c2E2][d2D2]) [d4D4] :|
